X: 10261
M: 2/4
L: 1/8
K: D
V: 1 staves=3
|:\
f2 fe/f/ | gfed | cdef | d AFA |\
f2 fe/f/ | gf ed | cd ef | d2 d2 :|
|:\
a2 ag/a/ | bagf | g2 gf/g/ | agfe |\
f2 fe/f/ | gfed | cdef | d2 d2 :|
V: 2
|:\
|:\
f2 fe/f/ | gfed | e2 ed/e/ | fedc |\
d2 AG/A/ | BAGF | EFGA | F2 F2 :|
V: 3 clef=bass middle=d
|:\
.d2 .d2 | .d2 .d2 | AA AA | d2 d2 |\
d2 dd | .d2 .d2 | AAAA | d2 d2 :|
|:\
d'dd'd | d'd'd'd' | a A a A | aa aa |\
d2 dd | e2 d2 | GABc | d2 d2 :|


